X:629
T:Miss Forbes
R:Reel
B:The Athole Collection
M:C|
L:1/8
K:C
F|EGGc AcGc|EGGE FDDF|EGGc Bcdf|ecgc Gcc:|
a|gcec gcfa|gcec Bdfa|gcac gcec|fdBg ecca|gcec gcfa|
gcec dfBg|ecBc Gcec|fdgd ec~c||

